assets/ai/ai-stackoverflow.svg

<svg xmlns="http://www.w3.org/2000/svg" width="100%" height="100%" viewBox="-107.52 -43.52 599.04 599.04"><path d="M 252.08252,64.000002 224.59395,84.395607 326.58056,221.8558 354.06915,201.4602 Z m -63.40386,54.985808 -21.72932,26.15488 131.69229,109.52992 21.72931,-26.16352 z m -50.55161,70.9472 -14.18598,31.4811 155.197,72.27227 14.18598,-31.0394 z m -29.26399,77.59851 -7.093,33.69819 167.60759,35.0319 7.09299,-33.70684 z M 29.930845,310.98148 V 448 H 338.10776 V 310.98148 H 303.96787 V 413.86011 H 64.079385 V 310.98148 Z m 68.28841,34.14854 V 379.2699 H 269.37765 v -34.13988 z"/></svg>

<svg xmlns="http://www.w3.org/2000/svg" width="100%" height="100%" viewBox="-107.52 -43.52 599.04 599.04"><path d="M252.083 64l-27.489 20.396 101.987 137.46 27.488-20.396zm-63.404 54.986l-21.73 26.155 131.693 109.53 21.729-26.164zm-50.552 70.947l-14.186 31.481 155.197 72.272 14.186-31.039zm-29.264 77.599l-7.093 33.698 167.608 35.032 7.093-33.707zm-78.932 43.45V448h308.177V310.981h-34.14v102.88H64.079V310.98zm68.288 34.148v34.14h171.159v-34.14z"/></svg>
